X:11
T:Grandmother's Birthday
C:Anne Marie Summers
R:Mazurka
B:"Here's one we made earlier" MADE 1997 tune book
N:reproduced with permission
M:9/8
L:1/8
N:Drone G
K:Am
B3 {cBA}B2A B2c|d2c B2A B2G|A3 {BAG}A2G A2f|e2d c2A B2c|
B3 {cBA}B2A B2c|d2c B2A BAG|1 F2e e2d c2A|B3 G2A B2c:|2
G2f e2d c2A|B3 G6|:_B2A G3 g2f|e2d e2f _B2A|
_B2d f3-f2e|d2c d2e A2G|A2d g3-g2f|e2d e2f _B2A|1
_B2d f2e d2c|_B2A B3 G2A:|2 _B2d f2e d2c|=B2A B3 G3|]
<end>
<start>
